packages/ui-icons/svg/Solid/launch.svg

<svg viewBox="0 0 1920 1920" version="1.1" xmlns="http://www.w3.org/2000/svg">
    <path d="M508.235294 0L56.4705882 0C25.2988235 0 0 25.2988235 0 56.4705882L0 508.235294C0 539.407059 25.2988235 564.705882 56.4705882 564.705882L508.235294 564.705882C539.407059 564.705882 564.705882 539.407059 564.705882 508.235294L564.705882 56.4705882C564.705882 25.2988235 539.407059 0 508.235294 0L508.235294 0zM1185.88235 0L734.117647 0C702.945882 0 677.647059 25.2988235 677.647059 56.4705882L677.647059 508.235294C677.647059 539.407059 702.945882 564.705882 734.117647 564.705882L1185.88235 564.705882C1217.05412 564.705882 1242.35294 539.407059 1242.35294 508.235294L1242.35294 56.4705882C1242.35294 25.2988235 1217.05412 0 1185.88235 0L1185.88235 0zM1863.52941 0L1411.76471 0C1380.59294 0 1355.29412 25.2988235 1355.29412 56.4705882L1355.29412 508.235294C1355.29412 539.407059 1380.59294 564.705882 1411.76471 564.705882L1863.52941 564.705882C1894.70118 564.705882 1920 539.407059 1920 508.235294L1920 56.4705882C1920 25.2988235 1894.70118 0 1863.52941 0L1863.52941 0zM508.235294 677.647059L56.4705882 677.647059C25.2988235 677.647059 0 702.945882 0 734.117647L0 1185.88235C0 1217.05412 25.2988235 1242.35294 56.4705882 1242.35294L508.235294 1242.35294C539.407059 1242.35294 564.705882 1217.05412 564.705882 1185.88235L564.705882 734.117647C564.705882 702.945882 539.407059 677.647059 508.235294 677.647059L508.235294 677.647059zM1185.88235 677.647059L734.117647 677.647059C702.945882 677.647059 677.647059 702.945882 677.647059 734.117647L677.647059 1185.88235C677.647059 1217.05412 702.945882 1242.35294 734.117647 1242.35294L1185.88235 1242.35294C1217.05412 1242.35294 1242.35294 1217.05412 1242.35294 1185.88235L1242.35294 734.117647C1242.35294 702.945882 1217.05412 677.647059 1185.88235 677.647059L1185.88235 677.647059zM1863.52941 677.647059L1411.76471 677.647059C1380.59294 677.647059 1355.29412 702.945882 1355.29412 734.117647L1355.29412 1185.88235C1355.29412 1217.05412 1380.59294 1242.35294 1411.76471 1242.35294L1863.52941 1242.35294C1894.70118 1242.35294 1920 1217.05412 1920 1185.88235L1920 734.117647C1920 702.945882 1894.70118 677.647059 1863.52941 677.647059L1863.52941 677.647059zM508.235294 1355.29412L56.4705882 1355.29412C25.2988235 1355.29412 0 1380.59294 0 1411.76471L0 1863.52941C0 1894.70118 25.2988235 1920 56.4705882 1920L508.235294 1920C539.407059 1920 564.705882 1894.70118 564.705882 1863.52941L564.705882 1411.76471C564.705882 1380.59294 539.407059 1355.29412 508.235294 1355.29412L508.235294 1355.29412zM1185.88235 1355.29412L734.117647 1355.29412C702.945882 1355.29412 677.647059 1380.59294 677.647059 1411.76471L677.647059 1863.52941C677.647059 1894.70118 702.945882 1920 734.117647 1920L1185.88235 1920C1217.05412 1920 1242.35294 1894.70118 1242.35294 1863.52941L1242.35294 1411.76471C1242.35294 1380.59294 1217.05412 1355.29412 1185.88235 1355.29412L1185.88235 1355.29412zM1863.52941 1355.29412L1411.76471 1355.29412C1380.59294 1355.29412 1355.29412 1380.59294 1355.29412 1411.76471L1355.29412 1863.52941C1355.29412 1894.70118 1380.59294 1920 1411.76471 1920L1863.52941 1920C1894.70118 1920 1920 1894.70118 1920 1863.52941L1920 1411.76471C1920 1380.59294 1894.70118 1355.29412 1863.52941 1355.29412L1863.52941 1355.29412z" stroke="none" stroke-width="1" fill-rule="evenodd"/>
</svg>

<svg viewBox="0 0 1920 1920" xmlns="http://www.w3.org/2000/svg">
    <path d="M508.235 0H56.471C25.299 0 0 25.299 0 56.47v451.765c0 31.172 25.299 56.47 56.47 56.47h451.765c31.172 0 56.47-25.298 56.47-56.47V56.471C564.706 25.299 539.408 0 508.236 0zm677.647 0H734.118c-31.172 0-56.47 25.299-56.47 56.47v451.765c0 31.172 25.298 56.47 56.47 56.47h451.764c31.172 0 56.47-25.298 56.47-56.47V56.471c0-31.172-25.298-56.471-56.47-56.471zm677.647 0h-451.764c-31.172 0-56.47 25.299-56.47 56.47v451.765c0 31.172 25.298 56.47 56.47 56.47h451.764c31.172 0 56.471-25.298 56.471-56.47V56.471C1920 25.299 1894.701 0 1863.53 0zM508.235 677.647H56.471C25.299 677.647 0 702.946 0 734.117v451.765c0 31.172 25.299 56.47 56.47 56.47h451.765c31.172 0 56.47-25.298 56.47-56.47V734.118c0-31.172-25.298-56.47-56.47-56.47zm677.647 0H734.118c-31.172 0-56.47 25.299-56.47 56.47v451.765c0 31.172 25.298 56.47 56.47 56.47h451.764c31.172 0 56.47-25.298 56.47-56.47V734.118c0-31.172-25.298-56.47-56.47-56.47zm677.647 0h-451.764c-31.172 0-56.47 25.299-56.47 56.47v451.765c0 31.172 25.298 56.47 56.47 56.47h451.764c31.172 0 56.471-25.298 56.471-56.47V734.118c0-31.172-25.299-56.47-56.47-56.47zM508.235 1355.294H56.471c-31.172 0-56.471 25.299-56.471 56.47v451.765C0 1894.701 25.299 1920 56.47 1920h451.765c31.172 0 56.47-25.299 56.47-56.47v-451.765c0-31.172-25.298-56.47-56.47-56.47zm677.647 0H734.118c-31.172 0-56.47 25.299-56.47 56.47v451.765c0 31.172 25.298 56.471 56.47 56.471h451.764c31.172 0 56.47-25.299 56.47-56.47v-451.765c0-31.172-25.298-56.47-56.47-56.47zm677.647 0h-451.764c-31.172 0-56.47 25.299-56.47 56.47v451.765c0 31.172 25.298 56.471 56.47 56.471h451.764c31.172 0 56.471-25.299 56.471-56.47v-451.765c0-31.172-25.299-56.47-56.47-56.47z" fill-rule="evenodd"/>
</svg>
